usr/share/icons/biglinux-icons-material/symbolic/actions/xapp-pin-symbolic.svg

<svg width="16" height="16" version="1.1" xmlns="http://www.w3.org/2000/svg">
 <path d="m3 1 1 1v4l-2 2h7l-2-2v-4l1-1zm2 8v4.75a16.197 16.197 0 0 0 0.5 1.5 18.757 18.757 0 0 0 0.5-1.5v-4.75z" color="#000000" fill="#363636"/>
 <path d="m11.5 8a3.5 3.5 0 0 0-3.5 3.5 3.5 3.5 0 0 0 3.5 3.5 3.5 3.5 0 0 0 3.5-3.5 3.5 3.5 0 0 0-3.5-3.5zm-0.5 1h1v2h2v1h-2v2h-1v-2h-2v-1h2z" fill="#363636" style="paint-order:markers stroke fill"/>
</svg>

<svg xmlns="http://www.w3.org/2000/svg" width="16" height="16"><path fill="#dedede" d="m3 1 1 1v4L2 8h7L7 6V2l1-1zm2 8v4.75a16.197 16.197 0 0 0 .5 1.5 18.757 18.757 0 0 0 .5-1.5V9z" color="#000"/><path fill="#dedede" d="M11.5 8A3.5 3.5 0 0 0 8 11.5a3.5 3.5 0 0 0 3.5 3.5 3.5 3.5 0 0 0 3.5-3.5A3.5 3.5 0 0 0 11.5 8zM11 9h1v2h2v1h-2v2h-1v-2H9v-1h2z" style="paint-order:markers stroke fill"/></svg>
